cars conneted/Assets.xcassets/2-User.imageset/2-User.svg

<svg fill="none" height="18" viewBox="0 0 20 18" width="20" xmlns="http://www.w3.org/2000/svg" xmlns:xlink="http://www.w3.org/1999/xlink"><linearGradient id="a"><stop offset="0" stop-color="#d92322"/><stop offset="1" stop-color="#7c142f"/></linearGradient><linearGradient id="b" gradientUnits="userSpaceOnUse" x1="0" x2="15.2864" xlink:href="#a" y1="11.8574" y2="14.2595"/><linearGradient id="c" gradientUnits="userSpaceOnUse" x1="2.48633" x2="12.8046" xlink:href="#a" y1="0" y2=".691857"/><linearGradient id="d" gradientUnits="userSpaceOnUse" x1="12.9089" x2="18.2494" xlink:href="#a" y1=".794922" y2="1.01421"/><linearGradient id="e" gradientUnits="userSpaceOnUse" x1="13.532" x2="20.3799" xlink:href="#a" y1="10.3809" y2="10.9352"/><path d="m7.34933 11.8574c-3.9638 0-7.34933.6123-7.34933 3.0597 0 2.4492 3.364 3.0826 7.34933 3.0826 3.96377 0 7.34937-.6123 7.34937-3.0596 0-2.4493-3.364-3.0827-7.34937-3.0827z" fill="url(#b)"/><path d="m7.34935 9.52482c2.69965 0 4.86305-2.11865 4.86305-4.76241s-2.1634-4.76241-4.86305-4.76241c-2.69863 0-4.86302 2.11865-4.86302 4.76241s2.16439 4.76241 4.86302 4.76241z" fill="url(#c)" opacity=".4"/><path d="m14.1735 4.84824c0 1.34632-.4129 2.60256-1.137 3.64607-.0753.10732-.0088.25202.1223.27502.182.0297.3689.04791.5597.05174 1.8983.04887 3.6018-1.14796 4.0725-2.9504.6976-2.67442-1.3494-5.075748-3.957-5.075748-.2828 0-.5538.028747-.818.08145-.0362.007665-.0754.024914-.0949.055577-.0255.039287-.0069.090071.0186.123611.7837 1.0761 1.2338 2.386 1.2338 3.79268z" fill="url(#d)" opacity=".4"/><path d="m19.7792 12.1697c-.3474-.7253-1.1859-1.2227-2.4619-1.467-.6017-.1437-2.2319-.3479-3.7475-.3191-.0225.0029-.0352.0182-.0372.0278-.0029.0153.0039.0383.0333.0546.7006.3392 3.408 1.8149 3.0675 4.9272-.0147.1361.0959.2511.2339.2319.6663-.0929 2.3806-.4542 2.9119-1.5772.2945-.5941.2945-1.2841 0-1.8782z" fill="url(#e)"/></svg>

<svg width="20" height="18" viewBox="0 0 20 18" fill="none" xmlns="http://www.w3.org/2000/svg">
<path d="M7.34933 11.8574C3.38553 11.8574 0 12.4697 0 14.9171C0 17.3663 3.364 17.9997 7.34933 17.9997C11.3131 17.9997 14.6987 17.3874 14.6987 14.9401C14.6987 12.4908 11.3347 11.8574 7.34933 11.8574Z" fill="url(#paint0_linear_222_4522)"/>
<path opacity="0.4" d="M7.34935 9.52482C10.049 9.52482 12.2124 7.40617 12.2124 4.76241C12.2124 2.11865 10.049 0 7.34935 0C4.65072 0 2.48633 2.11865 2.48633 4.76241C2.48633 7.40617 4.65072 9.52482 7.34935 9.52482Z" fill="url(#paint1_linear_222_4522)"/>
<path opacity="0.4" d="M14.1735 4.84824C14.1735 6.19456 13.7606 7.4508 13.0365 8.49431C12.9612 8.60163 13.0277 8.74633 13.1588 8.76933C13.3408 8.79903 13.5277 8.81724 13.7185 8.82107C15.6168 8.86994 17.3203 7.67311 17.791 5.87067C18.4886 3.19625 16.4416 0.794922 13.834 0.794922C13.5512 0.794922 13.2802 0.823669 13.016 0.876372C12.9798 0.884037 12.9406 0.901286 12.9211 0.931949C12.8956 0.971236 12.9142 1.02202 12.9397 1.05556C13.7234 2.13166 14.1735 3.44156 14.1735 4.84824Z" fill="url(#paint2_linear_222_4522)"/>
<path d="M19.7792 12.1697C19.4318 11.4444 18.5933 10.947 17.3173 10.7027C16.7156 10.559 15.0854 10.3548 13.5698 10.3836C13.5473 10.3865 13.5346 10.4018 13.5326 10.4114C13.5297 10.4267 13.5365 10.4497 13.5659 10.466C14.2665 10.8052 16.9739 12.2809 16.6334 15.3932C16.6187 15.5293 16.7293 15.6443 16.8673 15.6251C17.5336 15.5322 19.2479 15.1709 19.7792 14.0479C20.0737 13.4538 20.0737 12.7638 19.7792 12.1697Z" fill="url(#paint3_linear_222_4522)"/>
<defs>
<linearGradient id="paint0_linear_222_4522" x1="0" y1="11.8574" x2="15.2864" y2="14.2595" gradientUnits="userSpaceOnUse">
<stop stop-color="#D92322"/>
<stop offset="1" stop-color="#7C142F"/>
</linearGradient>
<linearGradient id="paint1_linear_222_4522" x1="2.48633" y1="0" x2="12.8046" y2="0.691857" gradientUnits="userSpaceOnUse">
<stop stop-color="#D92322"/>
<stop offset="1" stop-color="#7C142F"/>
</linearGradient>
<linearGradient id="paint2_linear_222_4522" x1="12.9089" y1="0.794922" x2="18.2494" y2="1.01421" gradientUnits="userSpaceOnUse">
<stop stop-color="#D92322"/>
<stop offset="1" stop-color="#7C142F"/>
</linearGradient>
<linearGradient id="paint3_linear_222_4522" x1="13.532" y1="10.3809" x2="20.3799" y2="10.9352" gradientUnits="userSpaceOnUse">
<stop stop-color="#D92322"/>
<stop offset="1" stop-color="#7C142F"/>
</linearGradient>
</defs>
</svg>
